X:8979
T:La Mariñana (XA 24)
C:Tradicional
S:Música Tradicional Asturiana, (C) Tello & Tito. Asturies, 2001.
S:http://pagina.de/MusTradAst <telloytito@asturies.org>
A:Asturies
Z:Métodu de Xuacu Amieva 24
M:2/4
L:1/8
Q:1/4=88
K:C
Bc
|: cc cB|d2 ~dc|B4|A2 AB|c4|B3 G|A2 A2|[1 {BA}G4-|G2 Gc :|[2 {BA}G4-|G4|
|c2 BA|G4|{AG}F4-|F4|B2 ~AG|F4|{GF}E4-|E4|
|A2 ~GF|E4|{FE}D4-|D4|D2 EF|G4|A4|{BA}G4-|G4|
|GA Bc|d2 ~dc|B4|AA AB|c2 B~A|G4|EF GA|B2 ~A~G|
|F4|FG AB|c2 BA|G3 ~A|F4|.G2 ~GF|E4|


